docs/assets/images/anchor-link.svg

<svg enable-background="new 0 0 24 24" fill="#530ae4" height="24" viewBox="0 0 24 24" width="24" xmlns="http://www.w3.org/2000/svg"><path d="m0 0h24v24h-24z" fill="none"/><path d="m17 15 1.55 1.55c-.96 1.69-3.33 3.04-5.55 3.37v-8.92h3v-2h-3v-1.18c1.16-.42 2-1.52 2-2.82 0-1.65-1.35-3-3-3s-3 1.35-3 3c0 1.3.84 2.4 2 2.82v1.18h-3v2h3v8.92c-2.22-.33-4.59-1.68-5.55-3.37l1.55-1.55-4-3v3c0 3.88 4.92 7 9 7s9-3.12 9-7v-3zm-5-11c.55 0 1 .45 1 1s-.45 1-1 1-1-.45-1-1 .45-1 1-1z"/></svg>

<svg xmlns="http://www.w3.org/2000/svg" enable-background="new 0 0 24 24" height="24px" viewBox="0 0 24 24" width="24px" fill="#530ae4"><g><rect fill="none" height="24" width="24"/><path d="M17,15l1.55,1.55c-0.96,1.69-3.33,3.04-5.55,3.37V11h3V9h-3V7.82C14.16,7.4,15,6.3,15,5c0-1.65-1.35-3-3-3S9,3.35,9,5 c0,1.3,0.84,2.4,2,2.82V9H8v2h3v8.92c-2.22-0.33-4.59-1.68-5.55-3.37L7,15l-4-3v3c0,3.88,4.92,7,9,7s9-3.12,9-7v-3L17,15z M12,4 c0.55,0,1,0.45,1,1s-0.45,1-1,1s-1-0.45-1-1S11.45,4,12,4z"/></g></svg>
